src/images/svg/eye.svg

<svg width="16" height="16" viewBox="0 0 16 16" fill="none" xmlns="http://www.w3.org/2000/svg">
<path d="M16 8C16 8 13 2.5 8 2.5C3 2.5 0 8 0 8C0 8 3 13.5 8 13.5C13 13.5 16 8 16 8ZM1.173 8C1.65651 7.26512 2.21264 6.58069 2.833 5.957C4.12 4.668 5.88 3.5 8 3.5C10.12 3.5 11.879 4.668 13.168 5.957C13.7884 6.58069 14.3445 7.26512 14.828 8C14.77 8.087 14.706 8.183 14.633 8.288C14.298 8.768 13.803 9.408 13.168 10.043C11.879 11.332 10.119 12.5 8 12.5C5.88 12.5 4.121 11.332 2.832 10.043C2.21165 9.41931 1.65552 8.73487 1.172 8H1.173Z" fill="#999999"/>
<path d="M8 5.5C7.33696 5.5 6.70107 5.76339 6.23223 6.23223C5.76339 6.70107 5.5 7.33696 5.5 8C5.5 8.66304 5.76339 9.29893 6.23223 9.76777C6.70107 10.2366 7.33696 10.5 8 10.5C8.66304 10.5 9.29893 10.2366 9.76777 9.76777C10.2366 9.29893 10.5 8.66304 10.5 8C10.5 7.33696 10.2366 6.70107 9.76777 6.23223C9.29893 5.76339 8.66304 5.5 8 5.5ZM4.5 8C4.5 7.07174 4.86875 6.1815 5.52513 5.52513C6.1815 4.86875 7.07174 4.5 8 4.5C8.92826 4.5 9.8185 4.86875 10.4749 5.52513C11.1313 6.1815 11.5 7.07174 11.5 8C11.5 8.92826 11.1313 9.8185 10.4749 10.4749C9.8185 11.1313 8.92826 11.5 8 11.5C7.07174 11.5 6.1815 11.1313 5.52513 10.4749C4.86875 9.8185 4.5 8.92826 4.5 8Z" fill="#999999"/>
</svg>

<svg width="16" height="16" fill="none" xmlns="http://www.w3.org/2000/svg"><path d="M16 8s-3-5.5-8-5.5S0 8 0 8s3 5.5 8 5.5S16 8 16 8zM1.173 8c.484-.735 1.04-1.42 1.66-2.043C4.12 4.668 5.88 3.5 8 3.5c2.12 0 3.879 1.168 5.168 2.457A13.13 13.13 0 0 1 14.828 8c-.058.087-.122.183-.195.288-.335.48-.83 1.12-1.465 1.755C11.879 11.332 10.119 12.5 8 12.5c-2.12 0-3.879-1.168-5.168-2.457A13.134 13.134 0 0 1 1.172 8h.001z" fill="#999"/><path d="M8 5.5a2.5 2.5 0 1 0 0 5 2.5 2.5 0 0 0 0-5zM4.5 8a3.5 3.5 0 1 1 7 0 3.5 3.5 0 0 1-7 0z" fill="#999"/></svg>
